icons/arrow-top.svg

<svg width="24" height="24" viewBox="0 0 24 24" fill="none" xmlns="http://www.w3.org/2000/svg">
<path fill-rule="evenodd" clip-rule="evenodd" d="M12.1 6.26257C12.5142 6.26257 12.85 6.59836 12.85 7.01257V17.0126C12.85 17.4268 12.5142 17.7626 12.1 17.7626C11.6858 17.7626 11.35 17.4268 11.35 17.0126V7.01257C11.35 6.59836 11.6858 6.26257 12.1 6.26257Z" fill="black"/>
<path fill-rule="evenodd" clip-rule="evenodd" d="M11.9318 7.74174L8.34445 11.5284C8.05958 11.8291 7.58488 11.8419 7.28418 11.557C6.98348 11.2721 6.97065 10.7974 7.25552 10.4967L10.8625 6.68938L10.8697 6.68222C11.4626 6.08933 12.4374 6.08933 13.0303 6.68222L13.0374 6.68929L16.7373 10.4893C17.0263 10.7861 17.02 11.2609 16.7232 11.5499C16.4264 11.8389 15.9516 11.8325 15.6626 11.5358L11.969 7.74234C11.9673 7.74099 11.9618 7.73755 11.95 7.73755C11.9397 7.73755 11.9342 7.74017 11.9318 7.74174Z" fill="black"/>
</svg>

<svg xmlns="http://www.w3.org/2000/svg" fill="none" viewBox="0 0 24 24">
  <path fill="#000" fill-rule="evenodd" d="M12.1 6.263a.75.75 0 0 1 .75.75v10a.75.75 0 0 1-1.5 0v-10a.75.75 0 0 1 .75-.75Z" clip-rule="evenodd"/>
  <path fill="#000" fill-rule="evenodd" d="m11.932 7.742-3.588 3.786a.75.75 0 1 1-1.088-1.031l3.607-3.808.007-.007a1.535 1.535 0 0 1 2.16 0l.007.007 3.7 3.8a.75.75 0 1 1-1.074 1.047l-3.694-3.794c-.002-.001-.007-.004-.019-.004a.033.033 0 0 0-.018.004Z" clip-rule="evenodd"/>
</svg>
